X:1
T:Om sommaren den skna
R:Visa
Z:Klas Krantz, 2006
O:Sverige
L:1/8
M:6/8
K:Gm
D |: "Gm"G>GG GAB | "Cm"BAG "D7"A2c | "Bb"d>ed "Cm"cAB |1 "Gdim"B3 "D7"A2D :|2 "Gdim"B3 "D7"A2d ||
"Gm"B>BB "Gm7"Bcd | "Cm"dcB "F"c2d | "Gm"B>BB "Gm7"Bcd | "C7"dcB "F"c2d | "Gm"B>AG "D7"A>G^F | "C"G3-"Gm"G2 |]
